frontend/public/assets/material-icons/folder-pdm.svg

<svg xmlns="http://www.w3.org/2000/svg" viewBox="0 0 32 32">
  <path d="M13.84376,7.53645l-1.28749-1.0729A2,2,0,0,0,11.27591,6H4A2,2,0,0,0,2,8V24a2,2,0,0,0,2,2H28a2,2,0,0,0,2-2V10a2,2,0,0,0-2-2H15.12412A2,2,0,0,1,13.84376,7.53645Z" style="fill: #9575cd"/>
  <path d="M23.50974,10.27577l-7,3.9375A1,1,0,0,0,16,15.08485v7.8303a1,1,0,0,0,.50974.87158l7,3.9375a1,1,0,0,0,.98052,0l7-3.9375A1,1,0,0,0,32,22.91515v-7.8303a1,1,0,0,0-.50974-.87158l-7-3.9375A1,1,0,0,0,23.50974,10.27577Zm-5.25515,5.25079,5.49964-3.09813a.5.5,0,0,1,.49136.00031L26,13.42V14l-8,4V15.96219A.5.5,0,0,1,18.25459,15.52656ZM26,16v5.52l-5.24-2.9Zm-2.24578,9.57151-5.49963-3.09813A.5.5,0,0,1,18,22.03774V20l.59-.29,8.1,4.48-2.4444,1.38119A.5.5,0,0,1,23.75422,25.57151ZM30,22.03779a.5.5,0,0,1-.25454.4356L28.74,23.04,28,22.63V14.54l1.746.98647a.5.5,0,0,1,.254.43532Z" style="fill: #d1c4e9;fill-rule: evenodd"/>
</svg>

<svg xmlns="http://www.w3.org/2000/svg" viewBox="0 0 32 32"><path fill="#9575cd" d="m13.844 7.536-1.288-1.072A2 2 0 0 0 11.276 6H4a2 2 0 0 0-2 2v16a2 2 0 0 0 2 2h24a2 2 0 0 0 2-2V10a2 2 0 0 0-2-2H15.124a2 2 0 0 1-1.28-.464"/><path fill="#d1c4e9" d="m23.51 10.276-7 3.937a1 1 0 0 0-.51.872v7.83a1 1 0 0 0 .51.872l7 3.937a1 1 0 0 0 .98 0l7-3.937a1 1 0 0 0 .51-.872v-7.83a1 1 0 0 0-.51-.872l-7-3.937a1 1 0 0 0-.98 0m-5.255 5.25 5.5-3.098a.5.5 0 0 1 .49 0L26 13.42V14l-8 4v-2.038a.5.5 0 0 1 .255-.435ZM26 16v5.52l-5.24-2.9Zm-2.246 9.572-5.5-3.099a.5.5 0 0 1-.254-.435V20l.59-.29 8.1 4.48-2.444 1.381a.5.5 0 0 1-.492 0ZM30 22.038a.5.5 0 0 1-.255.435l-1.005.567-.74-.41v-8.09l1.746.986a.5.5 0 0 1 .254.436Z"/></svg>
